X:142
T:Sporting Pitchfork
Z: id:dc-jig-172
M:6/8
L:1/8
K:D Major
z|F3 E3|FEF DEF|GFG AGA|cAG FGA|!
B3 BAG|A3 ABc|dcA AGF|AGF G2:|!
B|d2e f2d|fge def|g2a bag|fd^c d2=c|!
B3 BAG|A3 ABc|dcA AGF|AGF G2:|!


